public/sokl.svg

<svg height="400" viewBox="0 0 400 400" width="400" xmlns="http://www.w3.org/2000/svg"><g fill-rule="evenodd"><path d="m71.75 43.343c-.302.046-.55.174-.55.284s-.172.145-.383.078-.442-.026-.514.09-.214.16-.317.096c-.102-.063-.186-.019-.186.097 0 .117-.23.212-.512.212-.336 0-.463.079-.369.231.091.147.055.176-.101.08-.134-.082-.395-.013-.581.155-.185.168-.402.289-.481.27-.078-.02-.318.114-.533.298-.214.183-.442.281-.506.216-.064-.064-.117-.031-.117.074 0 .104-.272.35-.604.546-.331.196-.55.443-.485.548.065.106.045.167-.046.137-.211-.07-63.756 63.471-63.931 63.928-.072.188-.215.29-.318.227-.179-.111-.538.629-.456.94.022.083-.04.15-.137.15-.289 0-.466.806-.531 2.425-.064 1.568.212 3.175.544 3.175.103 0 .132.09.064.2s-.028.2.088.2c.117 0 .212.123.212.274 0 .724 2.724 2.694 3.894 2.816.333.035.741.12.906.188.429.178 321.337.03 322.3-.149 1.556-.289 3.87-1.187 4.143-1.609.078-.121.213-.226.3-.234.432-.039 1.257-.584 1.257-.83 0-.154.099-.218.22-.144.128.079 6.843-6.513 16.05-15.757 39.005-39.161 48.53-48.776 48.53-48.991 0-.127.059-.171.132-.099.187.187.718-.623.568-.865-.068-.11-.028-.2.088-.2.117 0 .212-.175.212-.388 0-.214.081-.439.181-.5.254-.157.232-3.312-.023-3.312-.113 0-.158-.18-.1-.4.057-.22.023-.4-.077-.4-.099 0-.171-.068-.159-.15.043-.302-.274-1.05-.445-1.05-.097 0-.177-.119-.177-.265 0-.263-.809-1.135-1.053-1.135-.069 0-.367-.223-.662-.496-.294-.273-.604-.454-.687-.402-.084.051-.263-.039-.398-.202s-.319-.25-.409-.195c-.09.056-.22.01-.289-.101-.121-.197-322.258-.256-323.552-.061m-66.95 117.051c-.165.094-.728.321-1.251.505s-.901.417-.838.518c.062.101-.014.183-.168.183-.412 0-1.12.847-1.671 2-.078.165-.226.356-.327.424s-.198.36-.215.65c-.016.289-.102.526-.19.526-.843.001.432 5.214 1.415 5.787.19.11.3.2.245.2s10.961 11.05 24.48 24.556c36.158 36.123 38.886 38.857 38.77 38.857-.178 0 1.601 1.36 2.142 1.639.28.143.553.307.608.363.055.057.55.322 1.1.59.55.267 1.081.527 1.181.578.099.05.117-.011.04-.136-.078-.126.291-.027.819.219l.96.447 161.1-.009c88.605-.005 161.415-.058 161.8-.118 1.014-.158 1.6-.373 1.6-.586 0-.103.175-.187.389-.187.213 0 .528-.2.7-.445.171-.244.311-.367.311-.273 0 .095.199-.088.443-.405s.491-.622.55-.677c1.204-1.126 1.57-4.884.648-6.642-.215-.408-.446-.686-.515-.617-.07.069-.126-.024-.126-.208 0-.183-.09-.333-.2-.333s-.2-.086-.2-.192c0-.275-64.046-64.319-64.256-64.253-.095.03-.122-.029-.059-.13.141-.228-2.149-1.695-2.342-1.501-.047.047-.2-.052-.339-.219-.139-.168-.407-.305-.595-.305s-.404-.062-.479-.137c-.8-.8 7.505-.759-163.43-.8-88.99-.022-161.935.038-162.1.131m68.172 118.301c-.051.051-.381.115-.732.141-.352.027-.64.112-.64.189s-.158.114-.35.083-.462.033-.6.142c-.137.11-.25.132-.25.05s-.127-.043-.283.086c-.155.129-.527.279-.827.333-.73.132-1.69.642-1.69.898 0 .114-.077.159-.17.101-.547-.338-65.832 64.711-66.741 66.501-.592 1.165-.953 4.781-.478 4.781.117 0 .158.088.092.196-.146.235.945 2.249 1.21 2.235.103-.005.297.201.432.458.237.451 1.813 1.511 2.37 1.593.151.022.336.102.412.178.31.31 322.903.133 323.973-.177.55-.16 1.09-.316 1.2-.346.11-.031.38-.156.6-.277s.473-.218.563-.216c.272.008 1.537-.724 1.537-.889 0-.085.139-.155.308-.155.473 0-.953 1.405 33.389-32.907 21.415-21.396 32.63-32.738 33.009-33.384.752-1.285.799-5.909.059-5.909-.104 0-.133-.09-.065-.2s.028-.2-.088-.2c-.117 0-.212-.116-.212-.258 0-.755-2.405-2.483-3.982-2.86-1.089-.261-321.786-.447-322.046-.187" fill="#e4e4ec"/><path d="m57.998 53.95-4.498 4.55 4.55-4.498c2.503-2.474 4.55-4.522 4.55-4.55 0-.142-.422.27-4.602 4.498m325.53 14.873c-5.924 5.941-12.353 12.439-14.287 14.44-1.933 2 .692-.548 5.835-5.663 8.368-8.323 19.492-19.616 19.298-19.59-.041.005-4.921 4.871-10.846 10.813m-361.429 21.027-11.399 11.45 11.45-11.399c6.298-6.27 11.45-11.422 11.45-11.45 0-.141-.904.756-11.501 11.399m329.201 90.55c4.179 4.18 7.643 7.6 7.698 7.6s-3.319-3.42-7.498-7.6-7.643-7.6-7.698-7.6 3.319 3.42 7.498 7.6m-327.7 12.9c9.515 9.515 17.344 17.3 17.399 17.3s-7.684-7.785-17.199-17.3-17.344-17.3-17.399-17.3 7.684 7.785 17.199 17.3m367.5 26.9c3.849 3.85 7.043 7 7.098 7s-3.049-3.15-6.898-7-7.043-7-7.098-7 3.049 3.15 6.898 7m-334.001 6.567c4.29 4.308 7.853 7.833 7.92 7.833.21 0-12.611-12.945-14.199-14.335-.836-.733 1.99 2.193 6.279 6.502m341.301.809c0 .123.083.224.185.224s.227.157.277.35c.077.295.095.299.115.024.013-.179-.112-.437-.277-.574-.207-.172-.3-.18-.3-.024m-328.112 10.113c.214.171.529.304.7.295.27-.013.271-.031.012-.127-.165-.061-.48-.194-.7-.295-.394-.181-.394-.179-.012.127m-25.889 65.261-12.899 12.95 12.95-12.899c12.038-11.991 13.04-13.001 12.899-13.001-.027 0-5.855 5.828-12.95 12.95m332.1 8.5-7.599 7.65 7.65-7.599c7.11-7.063 7.74-7.701 7.599-7.701-.028 0-3.471 3.443-7.65 7.65" fill="#dce4ec"/><g fill="#e8e4ec"><path d="m393.698 58.85-4.398 4.45 4.45-4.398c4.135-4.087 4.54-4.502 4.398-4.502-.028 0-2.031 2.003-4.45 4.45m-389.698 114.85c1.261 1.265 2.338 2.3 2.393 2.3s-.932-1.035-2.193-2.3-2.338-2.3-2.393-2.3.932 1.035 2.193 2.3m19.599 150.05-7.899 7.95 7.95-7.899c7.389-7.342 8.04-8.001 7.899-8.001-.028 0-3.605 3.578-7.95 7.95"/><path d="m393.698 58.85-4.398 4.45 4.45-4.398c4.135-4.087 4.54-4.502 4.398-4.502-.028 0-2.031 2.003-4.45 4.45m-389.698 114.85c1.261 1.265 2.338 2.3 2.393 2.3s-.932-1.035-2.193-2.3-2.338-2.3-2.393-2.3.932 1.035 2.193 2.3m19.599 150.05-7.899 7.95 7.95-7.899c7.389-7.342 8.04-8.001 7.899-8.001-.028 0-3.605 3.578-7.95 7.95"/><path d="m393.698 58.85-4.398 4.45 4.45-4.398c4.135-4.087 4.54-4.502 4.398-4.502-.028 0-2.031 2.003-4.45 4.45m-389.698 114.85c1.261 1.265 2.338 2.3 2.393 2.3s-.932-1.035-2.193-2.3-2.338-2.3-2.393-2.3.932 1.035 2.193 2.3m19.599 150.05-7.899 7.95 7.95-7.899c7.389-7.342 8.04-8.001 7.899-8.001-.028 0-3.605 3.578-7.95 7.95"/></g></g></svg>

<svg id="svg" version="1.1" xmlns="http://www.w3.org/2000/svg" xmlns:xlink="http://www.w3.org/1999/xlink" width="400" height="400" viewBox="0, 0, 400,400"><g id="svgg"><path id="path0" d="M71.750 43.343 C 71.448 43.389,71.200 43.517,71.200 43.627 C 71.200 43.737,71.028 43.772,70.817 43.705 C 70.606 43.638,70.375 43.679,70.303 43.795 C 70.231 43.911,70.089 43.955,69.986 43.891 C 69.884 43.828,69.800 43.872,69.800 43.988 C 69.800 44.105,69.570 44.200,69.288 44.200 C 68.952 44.200,68.825 44.279,68.919 44.431 C 69.010 44.578,68.974 44.607,68.818 44.511 C 68.684 44.429,68.423 44.498,68.237 44.666 C 68.052 44.834,67.835 44.955,67.756 44.936 C 67.678 44.916,67.438 45.050,67.223 45.234 C 67.009 45.417,66.781 45.515,66.717 45.450 C 66.653 45.386,66.600 45.419,66.600 45.524 C 66.600 45.628,66.328 45.874,65.996 46.070 C 65.665 46.266,65.446 46.513,65.511 46.618 C 65.576 46.724,65.556 46.785,65.465 46.755 C 65.254 46.685,1.709 110.226,1.534 110.683 C 1.462 110.871,1.319 110.973,1.216 110.910 C 1.037 110.799,0.678 111.539,0.760 111.850 C 0.782 111.933,0.720 112.000,0.623 112.000 C 0.334 112.000,0.157 112.806,0.092 114.425 C 0.028 115.993,0.304 117.600,0.636 117.600 C 0.739 117.600,0.768 117.690,0.700 117.800 C 0.632 117.910,0.672 118.000,0.788 118.000 C 0.905 118.000,1.000 118.123,1.000 118.274 C 1.000 118.998,3.724 120.968,4.894 121.090 C 5.227 121.125,5.635 121.210,5.800 121.278 C 6.229 121.456,327.137 121.308,328.100 121.129 C 329.656 120.840,331.970 119.942,332.243 119.520 C 332.321 119.399,332.456 119.294,332.543 119.286 C 332.975 119.247,333.800 118.702,333.800 118.456 C 333.800 118.302,333.899 118.238,334.020 118.312 C 334.148 118.391,340.863 111.799,350.070 102.555 C 389.075 63.394,398.600 53.779,398.600 53.564 C 398.600 53.437,398.659 53.393,398.732 53.465 C 398.919 53.652,399.450 52.842,399.300 52.600 C 399.232 52.490,399.272 52.400,399.388 52.400 C 399.505 52.400,399.600 52.225,399.600 52.012 C 399.600 51.798,399.681 51.573,399.781 51.512 C 400.035 51.355,400.013 48.200,399.758 48.200 C 399.645 48.200,399.600 48.020,399.658 47.800 C 399.715 47.580,399.681 47.400,399.581 47.400 C 399.482 47.400,399.410 47.332,399.422 47.250 C 399.465 46.948,399.148 46.200,398.977 46.200 C 398.880 46.200,398.800 46.081,398.800 45.935 C 398.800 45.672,397.991 44.800,397.747 44.800 C 397.678 44.800,397.380 44.577,397.085 44.304 C 396.791 44.031,396.481 43.850,396.398 43.902 C 396.314 43.953,396.135 43.863,396.000 43.700 C 395.865 43.537,395.681 43.450,395.591 43.505 C 395.501 43.561,395.371 43.515,395.302 43.404 C 395.181 43.207,73.044 43.148,71.750 43.343 M4.800 160.394 C 4.635 160.488,4.072 160.715,3.549 160.899 C 3.026 161.083,2.648 161.316,2.711 161.417 C 2.773 161.518,2.697 161.600,2.543 161.600 C 2.131 161.600,1.423 162.447,0.872 163.600 C 0.794 163.765,0.646 163.956,0.545 164.024 C 0.444 164.092,0.347 164.384,0.330 164.674 C 0.314 164.963,0.228 165.200,0.140 165.200 C -0.703 165.201,0.572 170.414,1.555 170.987 C 1.745 171.097,1.855 171.187,1.800 171.187 C 1.745 171.187,12.761 182.237,26.280 195.743 C 62.438 231.866,65.166 234.600,65.050 234.600 C 64.872 234.600,66.651 235.960,67.192 236.239 C 67.472 236.382,67.745 236.546,67.800 236.602 C 67.855 236.659,68.350 236.924,68.900 237.192 C 69.450 237.459,69.981 237.719,70.081 237.770 C 70.180 237.820,70.198 237.759,70.121 237.634 C 70.043 237.508,70.412 237.607,70.940 237.853 L 71.900 238.300 233.000 238.291 C 321.605 238.286,394.415 238.233,394.800 238.173 C 395.814 238.015,396.400 237.800,396.400 237.587 C 396.400 237.484,396.575 237.400,396.789 237.400 C 397.002 237.400,397.317 237.200,397.489 236.955 C 397.660 236.711,397.800 236.588,397.800 236.682 C 397.800 236.777,397.999 236.594,398.243 236.277 C 398.487 235.960,398.734 235.655,398.793 235.600 C 399.997 234.474,400.363 230.716,399.441 228.958 C 399.226 228.550,398.995 228.272,398.926 228.341 C 398.856 228.410,398.800 228.317,398.800 228.133 C 398.800 227.950,398.710 227.800,398.600 227.800 C 398.490 227.800,398.400 227.714,398.400 227.608 C 398.400 227.333,334.354 163.289,334.144 163.355 C 334.049 163.385,334.022 163.326,334.085 163.225 C 334.226 162.997,331.936 161.530,331.743 161.724 C 331.696 161.771,331.543 161.672,331.404 161.505 C 331.265 161.337,330.997 161.200,330.809 161.200 C 330.621 161.200,330.405 161.138,330.330 161.063 C 329.530 160.263,337.835 160.304,166.900 160.263 C 77.910 160.241,4.965 160.301,4.800 160.394 M72.972 278.695 C 72.921 278.746,72.591 278.810,72.240 278.836 C 71.888 278.863,71.600 278.948,71.600 279.025 C 71.600 279.102,71.442 279.139,71.250 279.108 C 71.058 279.077,70.788 279.141,70.650 279.250 C 70.513 279.360,70.400 279.382,70.400 279.300 C 70.400 279.218,70.273 279.257,70.117 279.386 C 69.962 279.515,69.590 279.665,69.290 279.719 C 68.560 279.851,67.600 280.361,67.600 280.617 C 67.600 280.731,67.523 280.776,67.430 280.718 C 66.883 280.380,1.598 345.429,0.689 347.219 C 0.097 348.384,-0.264 352.000,0.211 352.000 C 0.328 352.000,0.369 352.088,0.303 352.196 C 0.157 352.431,1.248 354.445,1.513 354.431 C 1.616 354.426,1.810 354.632,1.945 354.889 C 2.182 355.340,3.758 356.400,4.315 356.482 C 4.466 356.504,4.651 356.584,4.727 356.660 C 5.037 356.970,327.630 356.793,328.700 356.483 C 329.250 356.323,329.790 356.167,329.900 356.137 C 330.010 356.106,330.280 355.981,330.500 355.860 C 330.720 355.739,330.973 355.642,331.063 355.644 C 331.335 355.652,332.600 354.920,332.600 354.755 C 332.600 354.670,332.739 354.600,332.908 354.600 C 333.381 354.600,331.955 356.005,366.297 321.693 C 387.712 300.297,398.927 288.955,399.306 288.309 C 400.058 287.024,400.105 282.400,399.365 282.400 C 399.261 282.400,399.232 282.310,399.300 282.200 C 399.368 282.090,399.328 282.000,399.212 282.000 C 399.095 282.000,399.000 281.884,399.000 281.742 C 399.000 280.987,396.595 279.259,395.018 278.882 C 393.929 278.621,73.232 278.435,72.972 278.695 " stroke="none" fill="#e4e4ec" fill-rule="evenodd"></path><path id="path1" d="M57.998 53.950 L 53.500 58.500 58.050 54.002 C 60.553 51.528,62.600 49.480,62.600 49.452 C 62.600 49.310,62.178 49.722,57.998 53.950 M383.528 68.823 C 377.604 74.764,371.175 81.262,369.241 83.263 C 367.308 85.263,369.933 82.715,375.076 77.600 C 383.444 69.277,394.568 57.984,394.374 58.010 C 394.333 58.015,389.453 62.881,383.528 68.823 M22.099 89.850 L 10.700 101.300 22.150 89.901 C 28.448 83.631,33.600 78.479,33.600 78.451 C 33.600 78.310,32.696 79.207,22.099 89.850 M351.300 180.400 C 355.479 184.580,358.943 188.000,358.998 188.000 C 359.053 188.000,355.679 184.580,351.500 180.400 C 347.321 176.220,343.857 172.800,343.802 172.800 C 343.747 172.800,347.121 176.220,351.300 180.400 M23.600 193.300 C 33.115 202.815,40.944 210.600,40.999 210.600 C 41.054 210.600,33.315 202.815,23.800 193.300 C 14.285 183.785,6.456 176.000,6.401 176.000 C 6.346 176.000,14.085 183.785,23.600 193.300 M391.100 220.200 C 394.949 224.050,398.143 227.200,398.198 227.200 C 398.253 227.200,395.149 224.050,391.300 220.200 C 387.451 216.350,384.257 213.200,384.202 213.200 C 384.147 213.200,387.251 216.350,391.100 220.200 M57.099 226.767 C 61.389 231.075,64.952 234.600,65.019 234.600 C 65.229 234.600,52.408 221.655,50.820 220.265 C 49.984 219.532,52.810 222.458,57.099 226.767 M398.400 227.576 C 398.400 227.699,398.483 227.800,398.585 227.800 C 398.687 227.800,398.812 227.957,398.862 228.150 C 398.939 228.445,398.957 228.449,398.977 228.174 C 398.990 227.995,398.865 227.737,398.700 227.600 C 398.493 227.428,398.400 227.420,398.400 227.576 M70.288 237.689 C 70.502 237.860,70.817 237.993,70.988 237.984 C 71.258 237.971,71.259 237.953,71.000 237.857 C 70.835 237.796,70.520 237.663,70.300 237.562 C 69.906 237.381,69.906 237.383,70.288 237.689 M44.399 302.950 L 31.500 315.900 44.450 303.001 C 56.488 291.010,57.490 290.000,57.349 290.000 C 57.322 290.000,51.494 295.828,44.399 302.950 M376.499 311.450 L 368.900 319.100 376.550 311.501 C 383.660 304.438,384.290 303.800,384.149 303.800 C 384.121 303.800,380.678 307.243,376.499 311.450 " stroke="none" fill="#dce4ec" fill-rule="evenodd"></path><path id="path2" d="M393.698 58.850 L 389.300 63.300 393.750 58.902 C 397.885 54.815,398.290 54.400,398.148 54.400 C 398.120 54.400,396.117 56.403,393.698 58.850 M4.000 173.700 C 5.261 174.965,6.338 176.000,6.393 176.000 C 6.448 176.000,5.461 174.965,4.200 173.700 C 2.939 172.435,1.862 171.400,1.807 171.400 C 1.752 171.400,2.739 172.435,4.000 173.700 M23.599 323.750 L 15.700 331.700 23.650 323.801 C 31.039 316.459,31.690 315.800,31.549 315.800 C 31.521 315.800,27.944 319.378,23.599 323.750 " stroke="none" fill="#e8e4ec" fill-rule="evenodd"></path><path id="path3" d="M393.698 58.850 L 389.300 63.300 393.750 58.902 C 397.885 54.815,398.290 54.400,398.148 54.400 C 398.120 54.400,396.117 56.403,393.698 58.850 M4.000 173.700 C 5.261 174.965,6.338 176.000,6.393 176.000 C 6.448 176.000,5.461 174.965,4.200 173.700 C 2.939 172.435,1.862 171.400,1.807 171.400 C 1.752 171.400,2.739 172.435,4.000 173.700 M23.599 323.750 L 15.700 331.700 23.650 323.801 C 31.039 316.459,31.690 315.800,31.549 315.800 C 31.521 315.800,27.944 319.378,23.599 323.750 " stroke="none" fill="#e8e4ec" fill-rule="evenodd"></path><path id="path4" d="M393.698 58.850 L 389.300 63.300 393.750 58.902 C 397.885 54.815,398.290 54.400,398.148 54.400 C 398.120 54.400,396.117 56.403,393.698 58.850 M4.000 173.700 C 5.261 174.965,6.338 176.000,6.393 176.000 C 6.448 176.000,5.461 174.965,4.200 173.700 C 2.939 172.435,1.862 171.400,1.807 171.400 C 1.752 171.400,2.739 172.435,4.000 173.700 M23.599 323.750 L 15.700 331.700 23.650 323.801 C 31.039 316.459,31.690 315.800,31.549 315.800 C 31.521 315.800,27.944 319.378,23.599 323.750 " stroke="none" fill="#e8e4ec" fill-rule="evenodd"></path></g></svg>
